material/.icons/material/numeric-4-box-multiple-outline.svg

<svg xmlns="http://www.w3.org/2000/svg" viewBox="0 0 24 24"><path d="M21 17H7V3h14m0-2H7a2 2 0 00-2 2v14a2 2 0 002 2h14a2 2 0 002-2V3a2 2 0 00-2-2m-6 14h2V5h-2v4h-2V5h-2v6h4M3 5H1v16a2 2 0 002 2h16v-2H3V5z"/></svg>

<?xml version="1.0" encoding="UTF-8"?><!DOCTYPE svg PUBLIC "-//W3C//DTD SVG 1.1//EN" "http://www.w3.org/Graphics/SVG/1.1/DTD/svg11.dtd"><svg xmlns="http://www.w3.org/2000/svg" xmlns:xlink="http://www.w3.org/1999/xlink" version="1.1" id="mdi-numeric-4-box-multiple-outline" width="24" height="24" viewBox="0 0 24 24"><path d="M21,17H7V3H21M21,1H7A2,2 0 0,0 5,3V17A2,2 0 0,0 7,19H21A2,2 0 0,0 23,17V3A2,2 0 0,0 21,1M15,15H17V5H15V9H13V5H11V11H15M3,5H1V21A2,2 0 0,0 3,23H19V21H3V5Z" /></svg>
